dist/assets/images/card/rsl.svg

<svg width="152" height="104" viewBox="0 0 152 104" fill="none" xmlns="http://www.w3.org/2000/svg">
<rect width="152" height="104" fill="#F6F6F6"/>
<path fill-rule="evenodd" clip-rule="evenodd" d="M96.8303 32.9904H98.5793C99.4913 32.9904 100.278 33.3026 100.94 33.9396C101.59 34.5517 101.927 35.2886 101.927 36.088C101.99 42.9701 101.915 49.8647 101.915 56.7468V58.5579C102.29 61.7804 103.701 64.6282 106.162 67.1013C108.049 68.9873 110.21 70.2863 112.659 71.0232C114.27 71.5978 117.293 71.8725 119.08 71.8725H131.248V59.5571H118.655C117.818 59.5197 117.094 59.2074 116.469 58.6204C115.819 58.0084 115.582 57.2964 115.569 56.497V44.4939L115.482 33.9896C115.107 30.7671 113.696 27.9193 111.234 25.4463C110.347 24.5595 109.41 23.81 108.399 23.173L96.8303 32.9904ZM20 75.757H21.9239C22.4361 75.757 22.8733 75.782 23.2356 75.8319C23.5979 75.8819 23.9227 75.9818 24.235 76.1567C24.6473 76.394 24.9471 76.7063 25.172 77.0935C25.3844 77.4807 25.4968 77.9178 25.4968 78.4049C25.4968 78.8421 25.3969 79.2418 25.172 79.604C24.9596 79.9787 24.6723 80.266 24.2975 80.4908C23.9352 80.7156 23.5354 80.828 23.0982 80.8405L25.3719 83.8632H24.3725L21.6241 80.191H21.8614C22.2612 80.191 22.586 80.1786 22.8608 80.1536C23.1357 80.1286 23.3855 80.0661 23.6229 79.9787C23.9602 79.8288 24.2101 79.604 24.3974 79.3167C24.5848 79.0294 24.6723 78.7047 24.6723 78.3425C24.6723 78.0552 24.6098 77.7929 24.4724 77.5306C24.335 77.2683 24.1476 77.056 23.9227 76.8936C23.6854 76.7188 23.423 76.6188 23.1482 76.5689C22.8733 76.5314 22.511 76.5064 22.0863 76.5064H20.812V83.8757H20V75.757ZM35.7533 75.757H40.1758V76.4939H36.5529V79.4042H40.0508V80.1411H36.5529V83.1263H40.1758V83.8632H35.7533V75.757ZM83.9003 75.757H84.7124V83.1263H88.0729V83.8632H83.9003V75.757ZM98.0671 75.757H98.8791V83.8507H98.0671V75.757ZM109.635 75.757H110.735L115.27 82.4768V75.757H116.082V83.8507H115.27L110.447 76.7312V83.8507H109.635V75.757ZM126.85 75.757H131.285V76.4939H127.662V79.4042H131.16V80.1411H127.662V83.1263H131.285V83.8632H126.85V75.757ZM42.5244 52.3253C42.6493 52.3253 42.7618 52.3253 42.8742 52.3128L42.9492 52.3753H43.3864C44.2484 52.3877 45.0229 52.7125 45.6726 53.362C46.3472 54.024 46.672 54.8109 46.672 55.7226L46.8344 58.5579C47.2092 61.7804 48.6209 64.6282 51.0819 67.1013C51.6441 67.6633 52.2313 68.1754 52.8434 68.6251L63.5372 59.5447C62.7127 59.5072 61.9881 59.1949 61.3634 58.6079C60.7138 57.9959 60.4765 57.2839 60.464 56.4845C60.464 56.3472 60.464 56.1348 60.464 55.9974C60.464 54.2113 60.1641 52.5002 59.552 50.8889C59.0148 49.2152 58.2403 47.7289 57.1409 46.3175C59.3896 43.4197 60.464 40.2347 60.464 36.625C60.464 34.8389 60.1641 33.1278 59.552 31.5165C58.7775 29.0684 57.3783 26.9076 55.3919 25.0216C52.7684 22.561 49.7327 21.1371 46.3097 20.7749C45.7475 20.7125 45.1854 20.675 44.6232 20.675H33.6296C26.6211 20.6875 20 25.9459 20 33.0029V71.8975H33.6296V33.0029H43.3864C44.2484 33.0154 45.0229 33.3401 45.6726 33.9896C46.3472 34.6516 46.672 35.4385 46.672 36.3503C46.672 38.661 45.5102 39.8975 42.5119 40.0474C39.1264 40.0474 36.378 42.7952 36.378 46.1801C36.3905 49.5774 39.1389 52.3253 42.5244 52.3253Z" fill="#093A54"/>
<path fill-rule="evenodd" clip-rule="evenodd" d="M50.9951 81.59C51.0076 81.8898 51.0825 82.1521 51.22 82.4019C51.3574 82.6517 51.5573 82.8515 51.7946 83.0014C52.0445 83.1513 52.3068 83.2262 52.6067 83.2262C52.919 83.2262 53.1938 83.1638 53.4437 83.0264C53.6935 82.889 53.9059 82.7016 54.0558 82.4518C54.2057 82.202 54.2807 81.9272 54.2807 81.6275C54.2807 81.4027 54.2307 81.1903 54.1308 80.9905C54.0308 80.7906 53.8934 80.6158 53.7185 80.4784C53.5436 80.341 53.3687 80.2411 53.1813 80.1661C52.9939 80.0912 52.7566 80.0162 52.4692 79.9413C52.1194 79.8539 51.8446 79.7664 51.6322 79.679C51.4198 79.5916 51.22 79.4792 51.0451 79.3293C50.5953 78.9421 50.3705 78.4425 50.3705 77.818C50.3705 77.3933 50.4704 77.0186 50.6828 76.6813C50.8952 76.3566 51.17 76.0943 51.5198 75.9069C51.8696 75.7196 52.2569 75.6322 52.6816 75.6322C53.0814 75.6322 53.4562 75.7321 53.7935 75.9194C54.1308 76.1193 54.4056 76.3816 54.6055 76.7063C54.8054 77.0436 54.9053 77.4058 54.9053 77.818H54.0558C54.0433 77.5432 53.9684 77.3059 53.8309 77.081C53.6935 76.8687 53.5311 76.6938 53.3063 76.5814C53.0939 76.469 52.844 76.4066 52.5692 76.4066C52.3193 76.4066 52.082 76.469 51.8696 76.5939C51.6572 76.7188 51.4823 76.8937 51.3574 77.106C51.2325 77.3183 51.17 77.5557 51.17 77.8055C51.17 78.1052 51.245 78.355 51.3949 78.5299C51.5448 78.7173 51.7197 78.8546 51.9445 78.9421C52.1694 79.0295 52.4443 79.1294 52.7816 79.2169C53.2063 79.3293 53.5186 79.4292 53.7185 79.5166C53.9184 79.5916 54.1308 79.729 54.3307 79.9163C54.568 80.1287 54.7554 80.3785 54.8928 80.6782C55.0302 80.978 55.0927 81.2902 55.0927 81.615C55.0927 82.0522 54.9803 82.4518 54.7554 82.8141C54.5305 83.1763 54.2307 83.4636 53.8559 83.6759C53.4811 83.8882 53.0689 83.9881 52.6316 83.9881C52.1819 83.9881 51.7572 83.8882 51.3699 83.6759C50.9826 83.4636 50.6828 83.1888 50.4579 82.8141C50.233 82.4394 50.1206 82.0272 50.1206 81.5775H50.9951V81.59ZM54.8678 69.9241C55.7298 70.3738 56.6418 70.7485 57.5913 71.0357C59.2028 71.6103 62.2261 71.8851 64.0125 71.8851H76.1804H82.3768H82.5392C83.1139 71.8851 83.6761 71.8476 84.2258 71.7852C87.6488 71.4105 90.6845 69.9991 93.308 67.5385C95.3068 65.6524 96.6935 63.4916 97.4681 61.0435C98.0677 59.4323 98.38 57.7211 98.38 55.935C98.38 51.7758 96.8934 48.0787 93.9076 44.8811C90.9219 41.6587 87.1616 40.0599 82.6142 40.0599C79.1912 40.0599 77.4797 38.8234 77.4797 36.3628C77.4797 35.451 77.817 34.6641 78.4791 34.0021C79.1287 33.3526 79.9033 33.0154 80.7653 33.0154C84.4381 32.9779 89.048 32.9904 93.2955 33.0029L106.175 22.0739C105.701 21.8741 105.214 21.6992 104.714 21.5493C103.102 20.9748 100.079 20.7 98.2926 20.7H79.5535C78.9788 20.7 78.4166 20.7375 77.867 20.7999C74.444 21.1746 71.4082 22.586 68.7847 25.0466C66.7859 26.9327 65.3992 29.0935 64.6247 31.5416C64.025 33.1528 63.7127 34.864 63.7127 36.6501C63.7127 40.8093 65.1993 44.5064 68.1851 47.7164C71.1709 50.9389 74.9312 52.5377 79.4785 52.5377C82.9015 52.5377 84.613 53.7742 84.613 56.2348C84.613 57.1466 84.2757 57.9335 83.6136 58.5955C82.964 59.2449 82.1894 59.5822 81.3274 59.5822H76.2054H67.0857L54.8678 69.9241ZM73.4945 79.7914C73.4945 80.5533 73.2946 81.2653 72.9198 81.9023C72.5326 82.5518 72.0079 83.0639 71.3458 83.4386C70.6836 83.8133 69.9716 84.0006 69.2095 84.0006C68.4599 84.0006 67.7603 83.8133 67.0982 83.4386C66.4361 83.0639 65.9114 82.5643 65.5241 81.9272C65.1369 81.2902 64.937 80.5908 64.937 79.8414C64.937 79.0795 65.1244 78.3675 65.5116 77.718C65.8989 77.0685 66.4111 76.5689 67.0732 76.1942C67.7354 75.8195 68.4474 75.6322 69.2095 75.6322C69.9591 75.6322 70.6711 75.8195 71.3208 76.1817C71.9829 76.5564 72.5076 77.056 72.8949 77.6931C73.2946 78.3425 73.4945 79.0295 73.4945 79.7914ZM69.222 76.4066C68.5974 76.4066 68.0227 76.5689 67.4855 76.8687C66.9483 77.181 66.5236 77.5931 66.2112 78.1302C65.8989 78.6548 65.749 79.2294 65.749 79.8414C65.749 80.4534 65.9114 81.0155 66.2237 81.5276C66.5485 82.0397 66.9733 82.4518 67.5105 82.7516C68.0477 83.0514 68.6223 83.2013 69.222 83.2013C69.6842 83.2013 70.134 83.1138 70.5587 82.939C70.9835 82.7641 71.3582 82.5143 71.6706 82.202C71.9954 81.8898 72.2327 81.5151 72.4201 81.1029C72.595 80.6782 72.6825 80.2411 72.6825 79.7789C72.6825 79.1669 72.5201 78.6048 72.2078 78.0927C71.8954 77.5682 71.4707 77.1685 70.9335 76.8562C70.3963 76.5689 69.8216 76.419 69.222 76.4066Z" fill="#F5770A"/>
<path fill-rule="evenodd" clip-rule="evenodd" d="M127.1 20C126.351 20 125.664 20.3123 125.126 20.8119C124.577 21.3864 124.277 22.0359 124.277 22.8603C124.277 23.6097 124.589 24.2592 125.126 24.7963C125.676 25.3708 126.351 25.6081 127.1 25.6081C127.887 25.6081 128.562 25.3708 129.112 24.7963C129.661 24.2467 129.936 23.6097 129.936 22.8603C129.936 22.0484 129.661 21.3989 129.112 20.8119C128.574 20.3123 127.887 20 127.1 20ZM125.464 21.1991C125.913 20.7869 126.488 20.5121 127.1 20.5121C127.712 20.5121 128.287 20.7869 128.737 21.1991C129.174 21.6737 129.411 22.1858 129.411 22.8728C129.411 23.4848 129.174 24.0593 128.737 24.4715C128.287 24.9087 127.712 25.1585 127.1 25.1585C126.488 25.1585 125.913 24.9212 125.464 24.4715C125.026 24.0593 124.789 23.4848 124.814 22.8728C124.789 22.1858 125.026 21.6737 125.464 21.1991Z" fill="#093A54"/>
<path fill-rule="evenodd" clip-rule="evenodd" d="M125.952 24.2709V21.6229H127.076C127.364 21.6229 127.564 21.6479 127.689 21.6979C127.814 21.7478 127.926 21.8353 128.001 21.9477C128.076 22.0726 128.113 22.21 128.113 22.3598C128.113 22.5597 128.051 22.7221 127.939 22.847C127.826 22.9719 127.651 23.0593 127.414 23.0968C127.526 23.1592 127.626 23.2342 127.701 23.3216C127.776 23.3965 127.876 23.5464 128.001 23.7463L128.326 24.2584H127.689L127.301 23.6838C127.164 23.484 127.064 23.3466 127.014 23.2966C126.964 23.2467 126.914 23.2092 126.852 23.1842C126.789 23.1592 126.702 23.1592 126.577 23.1592H126.464V24.2709H125.952ZM126.489 22.7346H126.889C127.151 22.7346 127.301 22.7221 127.364 22.6971C127.426 22.6721 127.476 22.6346 127.514 22.5847C127.551 22.5347 127.564 22.4598 127.564 22.3848C127.564 22.2974 127.539 22.2225 127.489 22.1725C127.439 22.1225 127.376 22.0851 127.289 22.0726C127.251 22.0601 127.114 22.0601 126.902 22.0601H126.489V22.7346Z" fill="#093A54"/>
</svg>

<svg width="152" height="104" fill="none" xmlns="http://www.w3.org/2000/svg"><path fill="#F6F6F6" d="M0 0h152v104H0z"/><path fill-rule="evenodd" clip-rule="evenodd" d="M96.83 32.99h1.75c.911 0 1.698.313 2.36.95.65.612.987 1.349.987 2.148.063 6.882-.012 13.777-.012 20.659v1.81c.375 3.223 1.786 6.071 4.247 8.544 1.887 1.886 4.048 3.185 6.497 3.922 1.611.575 4.634.85 6.421.85h12.168V59.556h-12.593c-.837-.037-1.561-.35-2.186-.937-.65-.612-.887-1.324-.9-2.123V44.494l-.087-10.504c-.375-3.223-1.786-6.07-4.248-8.544a16.204 16.204 0 00-2.835-2.273L96.83 32.99zM20 75.757h1.924a9.8 9.8 0 011.312.075c.362.05.687.15.999.325a2.5 2.5 0 01.937.937c.212.387.325.824.325 1.31 0 .438-.1.838-.325 1.2-.212.375-.5.662-.875.887a2.356 2.356 0 01-1.199.35l2.274 3.022h-1l-2.748-3.672h.237c.4 0 .725-.012 1-.037.275-.025.524-.088.762-.175a1.751 1.751 0 001.05-1.636 1.7 1.7 0 00-.2-.812 1.837 1.837 0 00-1.324-.962 8.078 8.078 0 00-1.063-.063h-1.274v7.37H20v-8.119zm15.753 0h4.423v.737h-3.623v2.91h3.498v.737h-3.498v2.985h3.623v.737h-4.423v-8.106zm48.147 0h.812v7.37h3.36v.736H83.9v-8.106zm14.167 0h.812v8.094h-.812v-8.094zm11.568 0h1.1l4.535 6.72v-6.72h.812v8.094h-.812l-4.823-7.12v7.12h-.812v-8.094zm17.215 0h4.435v.737h-3.623v2.91h3.498v.737h-3.498v2.985h3.623v.737h-4.435v-8.106zM42.524 52.325c.125 0 .238 0 .35-.012l.075.062h.437c.862.013 1.637.337 2.287.987.674.662.999 1.449.999 2.36l.162 2.836c.375 3.222 1.787 6.07 4.248 8.543a15.4 15.4 0 001.761 1.524l10.694-9.08c-.824-.038-1.549-.35-2.174-.937-.65-.612-.886-1.324-.899-2.123v-.488c0-1.786-.3-3.497-.912-5.108a14.485 14.485 0 00-2.411-4.572c2.249-2.897 3.323-6.082 3.323-9.692 0-1.786-.3-3.497-.912-5.108-.774-2.449-2.174-4.61-4.16-6.495-2.624-2.461-5.66-3.885-9.082-4.247-.563-.063-1.125-.1-1.687-.1H33.63C26.62 20.687 20 25.945 20 33.003v38.894h13.63V33.003h9.756c.862.012 1.637.337 2.287.987.674.662.999 1.448.999 2.36 0 2.311-1.162 3.547-4.16 3.697a6.136 6.136 0 00-6.134 6.133c.013 3.397 2.76 6.145 6.146 6.145z" fill="#093A54"/><path fill-rule="evenodd" clip-rule="evenodd" d="M50.995 81.59c.013.3.088.562.225.812s.337.45.575.6c.25.15.512.224.812.224.312 0 .587-.062.837-.2.25-.137.462-.324.612-.574.15-.25.225-.525.225-.825a1.4 1.4 0 00-.15-.636c-.1-.2-.238-.375-.413-.513a2.147 2.147 0 00-.537-.312 6.123 6.123 0 00-.712-.225 6.171 6.171 0 01-.837-.262 2.15 2.15 0 01-.587-.35c-.45-.387-.675-.886-.675-1.511 0-.425.1-.8.313-1.137a2.27 2.27 0 01.837-.774c.35-.187.737-.275 1.162-.275.4 0 .774.1 1.111.287.338.2.613.463.813.787.2.338.3.7.3 1.112h-.85a1.5 1.5 0 00-.225-.737 1.344 1.344 0 00-.525-.5 1.567 1.567 0 00-.737-.174c-.25 0-.487.062-.7.187-.212.125-.387.3-.512.512-.124.212-.187.45-.187.7 0 .3.075.549.225.724.15.187.325.325.55.412.224.088.5.187.837.275.424.112.737.212.937.3.2.075.412.212.612.4.237.212.424.462.562.761.137.3.2.612.2.937 0 .437-.113.837-.338 1.2a2.48 2.48 0 01-.9.86 2.447 2.447 0 01-1.223.313c-.45 0-.875-.1-1.262-.312a2.329 2.329 0 01-.912-.862 2.358 2.358 0 01-.337-1.236h.874v.012zm3.873-11.666c.862.45 1.774.825 2.723 1.112 1.612.574 4.635.85 6.422.85h18.526c.575 0 1.137-.038 1.687-.1 3.423-.376 6.459-1.787 9.082-4.248 1.999-1.886 3.385-4.046 4.16-6.494.6-1.612.912-3.323.912-5.109 0-4.16-1.487-7.856-4.472-11.054-2.986-3.222-6.746-4.821-11.294-4.821-3.423 0-5.134-1.237-5.134-3.697 0-.912.337-1.699 1-2.36.649-.65 1.423-.988 2.285-.988 3.673-.037 8.283-.025 12.53-.012l12.88-10.93a14.637 14.637 0 00-1.461-.524c-1.612-.574-4.635-.849-6.421-.849h-18.74c-.574 0-1.136.038-1.686.1-3.423.375-6.459 1.786-9.082 4.247-2 1.886-3.386 4.046-4.16 6.495a14.567 14.567 0 00-.912 5.108c0 4.16 1.486 7.856 4.472 11.066 2.986 3.223 6.746 4.822 11.293 4.822 3.424 0 5.135 1.236 5.135 3.697 0 .912-.337 1.699-1 2.36-.649.65-1.424.987-2.286.987H67.085L54.869 69.924zm18.627 9.867c0 .762-.2 1.474-.575 2.111a4.222 4.222 0 01-1.574 1.537A4.267 4.267 0 0169.21 84a4.21 4.21 0 01-2.112-.562 4.253 4.253 0 01-1.574-1.512 3.958 3.958 0 01-.587-2.086c0-.761.187-1.473.575-2.123.387-.65.9-1.15 1.561-1.524a4.267 4.267 0 012.137-.562c.75 0 1.461.188 2.11.55a4.253 4.253 0 011.575 1.511c.4.65.6 1.337.6 2.098zm-4.273-3.384c-.625 0-1.2.162-1.736.462a3.43 3.43 0 00-1.275 1.261 3.29 3.29 0 00-.462 1.711c0 .612.162 1.175.475 1.687.325.512.75.924 1.286 1.224a3.494 3.494 0 003.049.187c.425-.175.8-.425 1.112-.737.324-.312.562-.687.75-1.1.174-.424.261-.86.261-1.323 0-.612-.162-1.174-.474-1.686a3.46 3.46 0 00-1.275-1.237 3.758 3.758 0 00-1.711-.45z" fill="#F5770A"/><path fill-rule="evenodd" clip-rule="evenodd" d="M127.1 20c-.749 0-1.436.312-1.974.812-.549.574-.849 1.224-.849 2.048 0 .75.312 1.4.849 1.936.55.575 1.225.812 1.974.812.787 0 1.462-.237 2.012-.812.549-.55.824-1.186.824-1.936 0-.812-.275-1.461-.824-2.048-.538-.5-1.225-.812-2.012-.812zm-1.636 1.2c.449-.413 1.024-.688 1.636-.688.612 0 1.187.275 1.637.687.437.475.674.987.674 1.674a2.18 2.18 0 01-.674 1.598 2.342 2.342 0 01-1.637.688 2.286 2.286 0 01-1.636-.688 2.064 2.064 0 01-.65-1.598c-.025-.687.212-1.2.65-1.674z" fill="#093A54"/><path fill-rule="evenodd" clip-rule="evenodd" d="M125.952 24.27v-2.647h1.124c.288 0 .488.025.613.075a.68.68 0 01.312.25.785.785 0 01.112.412c0 .2-.062.362-.174.487-.113.125-.288.212-.525.25.112.062.212.137.287.225.075.075.175.224.3.424l.325.512h-.637l-.388-.574a3.727 3.727 0 00-.287-.387.48.48 0 00-.162-.113c-.063-.025-.15-.025-.275-.025h-.113v1.112h-.512zm.537-1.535h.4c.262 0 .412-.013.475-.038a.348.348 0 00.15-.112.344.344 0 00.05-.2.294.294 0 00-.075-.213.341.341 0 00-.2-.1c-.038-.012-.175-.012-.387-.012h-.413v.675z" fill="#093A54"/></svg>
